static/images/plato-logo-temporary.svg

<svg fill="none" height="1080" viewBox="0 0 1080 1080" width="1080" xmlns="http://www.w3.org/2000/svg"><path d="m0 0h1080v1080h-1080z" fill="#0064cc"/><g fill="#fff"><path d="m241.221 231.896h-14.893v96.74h14.893z"/><path d="m211.446 231.896h-14.893v96.74h14.893z"/><path d="m181.656 231.896h-14.894v96.74h14.894z"/><path d="m151.865 231.896h-14.894v96.74h14.894z"/><path d="m271.011 231.896h-14.892v96.74h14.892z"/><path d="m300.804 231.896h-14.894v96.74h14.894z"/><path d="m330.578 231.896h-14.894v96.74h14.894z"/><path d="m345.828 343.539h-224.107v14.914h224.107z"/><path d="m330.589 216.992h-193.618l-14.887-14.901h223.392z"/><path d="m360.725 373.344h-253.891v14.913h253.891z"/><path d="m360.725 177.986-126.937-44.986-126.954 44.986v15.826l126.954-44.983 126.937 44.983z"/><path d="m230.092 505.384h-32.088v47.821h-14.904v-105.369h14.904v44.907h32.088v-44.907h14.905v105.369h-14.905z"/><path d="m556.467 607.333c6.58-.023 12.78 2.134 15.63 4.375v-13.43c-2.85-1.753-9.844-3.702-16.925-3.702-19.774 0-30.655 11.25-30.655 27.567 0 13.607 5.751 20.141 15.025 28.147l8.48 7.329c6.995 5.86 11.347 10.375 11.347 19.138 0 10.248-6.77 14.307-16.925 14.307-7.703 0-14.093-2.134-17.771-4.679v13.667c3.229 1.868 9.982 3.793 19.101 3.769 19.722-.047 30.603-11.262 30.62-27.565.017-13.596-5.751-20.142-15.025-28.137l-8.48-7.341c-7.012-6.008-11.364-10.351-11.347-19.104.035-10.292 6.753-14.317 16.925-14.341z"/><path d="m464.952 609.165v37.135h7.944c11.658 0 19.447-2.451 19.447-18.65 0-16.057-7.789-18.485-19.447-18.485zm-14.904-12.652h24.299c19.446 0 33.366 7.307 33.366 31.137 0 16.688-8.082 24.786-18.289 28.522l22.348 45.722h-17.012l-19.774-42.967h-10.034v42.967h-14.904z"/><path d="m106.834 670.118v-73.593h14.904v74.246c0 15.569 5.354 20.096 16.2 20.096 10.863 0 16.199-4.527 16.199-20.096v-74.246h14.905v73.593c0 23.993-10.034 33.726-31.104 33.726-21.381 0-31.104-9.405-31.104-33.726z"/><path d="m188.315 596.525h17.184l33.211 83.968c-1.139-8.59-2.107-18.639-2.107-28.045v-55.923h14.266v105.371h-17.184l-33.539-84.293c1.295 8.589 2.435 18.8 2.435 28.37v55.923h-14.266z"/><path d="m286.862 596.525h-14.906v105.369h14.906z"/><path d="m300.711 596.525h15.56l13.281 54.793c1.952 8.274 4.37 22.208 5.838 33.235 1.45-11.027 3.886-24.961 6.148-33.235l13.125-54.793h15.06l-26.717 105.371h-15.561z"/><path d="m383.574 596.525h49.255v12.652h-34.351v32.255h27.702v12.476h-27.702v35.349h34.351v12.639h-49.255z"/><path d="m606.985 596.525h-14.906v105.369h14.906z"/><path d="m103.604 500.528c0-41.499 11.002-54.641 38.392-54.641 7.772 0 16.027 2.114 19.602 4.225v13.771c-3.886-2.263-11.346-4.702-18.479-4.702-17.495 0-24.127 6.488-24.127 41.347 0 34.52 4.698 41.65 19.93 41.65 4.698 0 8.584-.641 11.485-1.458v-35.176h-15.543v-12.637h30.447v56.892c-3.074 1.948-15.387 5.356-26.233 5.356-28.514 0-35.474-14.914-35.474-54.627z"/><path d="m266.084 447.836h49.255v12.652h-34.334v32.255h27.702v12.477h-27.702v35.348h34.334v12.639h-49.255z"/><path d="m332.557 447.836h17.184l33.211 83.967c-1.14-8.589-2.107-18.638-2.107-28.044v-55.923h14.248v105.371h-17.166l-33.539-84.295c1.295 8.591 2.435 18.802 2.435 28.37v55.925h-14.266z"/><path d="m408.737 447.836h60.429v12.652h-22.832v92.719h-14.921v-92.719h-22.676z"/><path d="m716.287 658.134-28.841-61.609h16.372l12.469 28.37c2.919 6.806 5.682 14.098 7.461 20.587 1.934-6.489 4.853-13.781 7.772-20.587l12.469-28.37h15.888l-28.686 61.609v43.762h-14.904z"/><path d="m621.145 596.525h60.429v12.652h-22.849v92.719h-14.904v-92.719h-22.676z"/><path d="m107 836.868h25.746c5.061 0 9.6.577 13.616 1.732 4.016 1.156 7.399 3.081 10.15 5.777 2.805 2.64 4.923 6.161 6.354 10.562 1.485 4.346 2.228 9.71 2.228 16.092 0 6.216-.77 11.497-2.311 15.843-1.485 4.346-3.631 7.895-6.436 10.645-2.806 2.696-6.217 4.649-10.233 5.859-3.961 1.211-8.417 1.816-13.368 1.816h-10.562v38.949h-15.184zm15.184 12.873v42.745h8.912c2.97 0 5.584-.303 7.839-.908 2.311-.66 4.236-1.788 5.776-3.383 1.541-1.596 2.696-3.769 3.466-6.519.825-2.806 1.238-6.354 1.238-10.645s-.413-7.812-1.238-10.563c-.77-2.751-1.925-4.924-3.466-6.519-1.54-1.595-3.465-2.696-5.776-3.301-2.255-.605-4.869-.907-7.839-.907z"/><path d="m184.238 836.868h15.184v94.402h33.338v12.873h-48.522z"/><path d="m273.722 836.868h15.679l28.552 107.275h-15.844l-6.271-24.261h-29.212l-6.107 24.261h-15.348zm-4.126 70.141h23.601l-4.456-17.824c-.605-2.201-1.238-4.676-1.898-7.427-.605-2.805-1.238-5.694-1.898-8.664-.605-3.026-1.21-6.107-1.815-9.243-.55-3.135-1.046-6.189-1.486-9.159-.495 2.97-1.072 6.024-1.733 9.159-.605 3.136-1.237 6.217-1.898 9.243-.66 2.97-1.32 5.859-1.98 8.664-.66 2.751-1.265 5.226-1.815 7.427z"/><path d="m317.623 836.868h61.559v12.873h-23.27v94.402h-15.184v-94.402h-23.105z"/><path d="m420.442 946.123c-3.796 0-7.262-.33-10.397-.99-3.081-.66-5.832-1.788-8.252-3.383-2.421-1.651-4.539-3.824-6.354-6.519-1.761-2.751-3.218-6.162-4.374-10.233-1.155-4.126-2.035-9.022-2.64-14.688-.551-5.666-.826-12.268-.826-19.805 0-11.112.661-20.245 1.981-27.396 1.32-7.207 3.328-12.901 6.024-17.082 2.75-4.181 6.189-7.069 10.315-8.664 4.126-1.651 8.967-2.476 14.523-2.476 5.722 0 10.645.798 14.771 2.393 4.181 1.596 7.619 4.456 10.315 8.582s4.676 9.793 5.942 16.999c1.32 7.207 1.98 16.422 1.98 27.644 0 7.427-.303 13.974-.908 19.64-.55 5.611-1.43 10.48-2.64 14.606-1.211 4.126-2.723 7.564-4.539 10.315-1.815 2.695-3.961 4.868-6.436 6.519-2.421 1.65-5.172 2.806-8.252 3.466-3.081.715-6.492 1.072-10.233 1.072zm0-13.203c3.466 0 6.299-.632 8.5-1.898 2.255-1.265 4.043-3.493 5.363-6.684 1.321-3.19 2.229-7.509 2.724-12.955.495-5.502.742-12.461.742-20.878s-.247-15.348-.742-20.795c-.495-5.501-1.403-9.847-2.724-13.038-1.32-3.191-3.108-5.419-5.363-6.684-2.201-1.265-5.034-1.898-8.5-1.898s-6.326.633-8.582 1.898c-2.2 1.265-3.933 3.493-5.199 6.684-1.265 3.191-2.145 7.537-2.64 13.038-.495 5.447-.743 12.378-.743 20.795s.248 15.376.743 20.878c.495 5.446 1.375 9.765 2.64 12.955 1.266 3.191 2.999 5.419 5.199 6.684 2.256 1.266 5.116 1.898 8.582 1.898z"/><path clip-rule="evenodd" d="m978 771.887h-877v-16h877z" fill-rule="evenodd"/></g></svg>

<svg width="1080" height="1080" viewBox="0 0 1080 1080" fill="none" xmlns="http://www.w3.org/2000/svg">
<rect width="1080" height="1080" fill="#0064CC"/>
<path d="M241.221 231.896H226.328V328.636H241.221V231.896Z" fill="white"/>
<path d="M211.446 231.896H196.553V328.636H211.446V231.896Z" fill="white"/>
<path d="M181.656 231.896H166.762V328.636H181.656V231.896Z" fill="white"/>
<path d="M151.865 231.896H136.971V328.636H151.865V231.896Z" fill="white"/>
<path d="M271.011 231.896H256.119V328.636H271.011V231.896Z" fill="white"/>
<path d="M300.804 231.896H285.91V328.636H300.804V231.896Z" fill="white"/>
<path d="M330.578 231.896H315.684V328.636H330.578V231.896Z" fill="white"/>
<path d="M345.828 343.539H121.721V358.453H345.828V343.539Z" fill="white"/>
<path d="M330.589 216.992H136.971L122.084 202.091H345.476L330.589 216.992Z" fill="white"/>
<path d="M360.725 373.344H106.834V388.257H360.725V373.344Z" fill="white"/>
<path d="M360.725 177.986L233.788 133L106.834 177.986V193.812L233.788 148.829L360.725 193.812V177.986Z" fill="white"/>
<path d="M230.092 505.384H198.004V553.205H183.1V447.836H198.004V492.743H230.092V447.836H244.997V553.205H230.092V505.384Z" fill="white"/>
<path d="M556.467 607.333C563.047 607.31 569.247 609.467 572.097 611.708V598.278C569.247 596.525 562.253 594.576 555.172 594.576C535.398 594.576 524.517 605.826 524.517 622.143C524.517 635.75 530.268 642.284 539.542 650.29L548.022 657.619C555.017 663.479 559.369 667.994 559.369 676.757C559.369 687.005 552.599 691.064 542.444 691.064C534.741 691.064 528.351 688.93 524.673 686.385V700.052C527.902 701.92 534.655 703.845 543.774 703.821C563.496 703.774 574.377 692.559 574.394 676.256C574.411 662.66 568.643 656.114 559.369 648.119L550.889 640.778C543.877 634.77 539.525 630.427 539.542 621.674C539.577 611.382 546.295 607.357 556.467 607.333Z" fill="white"/>
<path d="M464.952 609.165V646.3H472.896C484.554 646.3 492.343 643.849 492.343 627.65C492.343 611.593 484.554 609.165 472.896 609.165H464.952ZM450.048 596.513H474.347C493.793 596.513 507.713 603.82 507.713 627.65C507.713 644.338 499.631 652.436 489.424 656.172L511.772 701.894H494.76L474.986 658.927H464.952V701.894H450.048V596.513Z" fill="white"/>
<path d="M106.834 670.118V596.525H121.738V670.771C121.738 686.34 127.092 690.867 137.938 690.867C148.801 690.867 154.137 686.34 154.137 670.771V596.525H169.042V670.118C169.042 694.111 159.008 703.844 137.938 703.844C116.557 703.844 106.834 694.439 106.834 670.118Z" fill="white"/>
<path d="M188.315 596.525H205.499L238.71 680.493C237.571 671.903 236.603 661.854 236.603 652.448V596.525H250.869V701.896H233.685L200.146 617.603C201.441 626.192 202.581 636.403 202.581 645.973V701.896H188.315V596.525Z" fill="white"/>
<path d="M286.862 596.525H271.956V701.894H286.862V596.525Z" fill="white"/>
<path d="M300.711 596.525H316.271L329.552 651.318C331.504 659.592 333.922 673.526 335.39 684.553C336.84 673.526 339.276 659.592 341.538 651.318L354.663 596.525H369.723L343.006 701.896H327.445L300.711 596.525Z" fill="white"/>
<path d="M383.574 596.525H432.829V609.177H398.478V641.432H426.18V653.908H398.478V689.257H432.829V701.896H383.574V596.525Z" fill="white"/>
<path d="M606.985 596.525H592.079V701.894H606.985V596.525Z" fill="white"/>
<path d="M103.604 500.528C103.604 459.029 114.606 445.887 141.996 445.887C149.768 445.887 158.023 448.001 161.598 450.112V463.883C157.712 461.62 150.252 459.181 143.119 459.181C125.624 459.181 118.992 465.669 118.992 500.528C118.992 535.048 123.69 542.178 138.922 542.178C143.62 542.178 147.506 541.537 150.407 540.72V505.544H134.864V492.907H165.311V549.799C162.237 551.747 149.924 555.155 139.078 555.155C110.564 555.155 103.604 540.241 103.604 500.528Z" fill="white"/>
<path d="M266.084 447.836H315.339V460.488H281.005V492.743H308.707V505.22H281.005V540.568H315.339V553.207H266.084V447.836Z" fill="white"/>
<path d="M332.557 447.836H349.741L382.952 531.803C381.812 523.214 380.845 513.165 380.845 503.759V447.836H395.093V553.207H377.927L344.388 468.912C345.683 477.503 346.823 487.714 346.823 497.282V553.207H332.557V447.836Z" fill="white"/>
<path d="M408.737 447.836H469.166V460.488H446.334V553.207H431.413V460.488H408.737V447.836Z" fill="white"/>
<path d="M716.287 658.134L687.446 596.525H703.818L716.287 624.895C719.206 631.701 721.969 638.993 723.748 645.482C725.682 638.993 728.601 631.701 731.52 624.895L743.989 596.525H759.877L731.191 658.134V701.896H716.287V658.134Z" fill="white"/>
<path d="M621.145 596.525H681.574V609.177H658.725V701.896H643.821V609.177H621.145V596.525Z" fill="white"/>
<path d="M107 836.868H132.746C137.807 836.868 142.346 837.445 146.362 838.6C150.378 839.756 153.761 841.681 156.512 844.377C159.317 847.017 161.435 850.538 162.866 854.939C164.351 859.285 165.094 864.649 165.094 871.031C165.094 877.247 164.324 882.528 162.783 886.874C161.298 891.22 159.152 894.769 156.347 897.519C153.541 900.215 150.13 902.168 146.114 903.378C142.153 904.589 137.697 905.194 132.746 905.194H122.184V944.143H107V836.868ZM122.184 849.741V892.486H131.096C134.066 892.486 136.68 892.183 138.935 891.578C141.246 890.918 143.171 889.79 144.711 888.195C146.252 886.599 147.407 884.426 148.177 881.676C149.002 878.87 149.415 875.322 149.415 871.031C149.415 866.74 149.002 863.219 148.177 860.468C147.407 857.717 146.252 855.544 144.711 853.949C143.171 852.354 141.246 851.253 138.935 850.648C136.68 850.043 134.066 849.741 131.096 849.741H122.184Z" fill="white"/>
<path d="M184.238 836.868H199.422V931.27H232.76V944.143H184.238V836.868Z" fill="white"/>
<path d="M273.722 836.868H289.401L317.953 944.143H302.109L295.838 919.882H266.626L260.519 944.143H245.171L273.722 836.868ZM269.596 907.009H293.197L288.741 889.185C288.136 886.984 287.503 884.509 286.843 881.758C286.238 878.953 285.605 876.064 284.945 873.094C284.34 870.068 283.735 866.987 283.13 863.851C282.58 860.716 282.084 857.662 281.644 854.692C281.149 857.662 280.572 860.716 279.911 863.851C279.306 866.987 278.674 870.068 278.013 873.094C277.353 876.064 276.693 878.953 276.033 881.758C275.373 884.509 274.768 886.984 274.218 889.185L269.596 907.009Z" fill="white"/>
<path d="M317.623 836.868H379.182V849.741H355.912V944.143H340.728V849.741H317.623V836.868Z" fill="white"/>
<path d="M420.442 946.123C416.646 946.123 413.18 945.793 410.045 945.133C406.964 944.473 404.213 943.345 401.793 941.75C399.372 940.099 397.254 937.926 395.439 935.231C393.678 932.48 392.221 929.069 391.065 924.998C389.91 920.872 389.03 915.976 388.425 910.31C387.874 904.644 387.599 898.042 387.599 890.505C387.599 879.393 388.26 870.26 389.58 863.109C390.9 855.902 392.908 850.208 395.604 846.027C398.354 841.846 401.793 838.958 405.919 837.363C410.045 835.712 414.886 834.887 420.442 834.887C426.164 834.887 431.087 835.685 435.213 837.28C439.394 838.876 442.832 841.736 445.528 845.862C448.224 849.988 450.204 855.655 451.47 862.861C452.79 870.068 453.45 879.283 453.45 890.505C453.45 897.932 453.147 904.479 452.542 910.145C451.992 915.756 451.112 920.625 449.902 924.751C448.691 928.877 447.179 932.315 445.363 935.066C443.548 937.761 441.402 939.934 438.927 941.585C436.506 943.235 433.755 944.391 430.675 945.051C427.594 945.766 424.183 946.123 420.442 946.123ZM420.442 932.92C423.908 932.92 426.741 932.288 428.942 931.022C431.197 929.757 432.985 927.529 434.305 924.338C435.626 921.148 436.534 916.829 437.029 911.383C437.524 905.881 437.771 898.922 437.771 890.505C437.771 882.088 437.524 875.157 437.029 869.71C436.534 864.209 435.626 859.863 434.305 856.672C432.985 853.481 431.197 851.253 428.942 849.988C426.741 848.723 423.908 848.09 420.442 848.09C416.976 848.09 414.116 848.723 411.86 849.988C409.66 851.253 407.927 853.481 406.661 856.672C405.396 859.863 404.516 864.209 404.021 869.71C403.526 875.157 403.278 882.088 403.278 890.505C403.278 898.922 403.526 905.881 404.021 911.383C404.516 916.829 405.396 921.148 406.661 924.338C407.927 927.529 409.66 929.757 411.86 931.022C414.116 932.288 416.976 932.92 420.442 932.92Z" fill="white"/>
<path fill-rule="evenodd" clip-rule="evenodd" d="M978 771.887H101V755.887H978V771.887Z" fill="white"/>
</svg>
